X:1
T:BWV1006
T:J. S. Bach
%%score ( 1 2 3 4 )
L:1/8
Q:1/4=132
M:3/4
K:E
V:1 treble nm="Violin"
V:2 treble 
V:3 treble 
V:4 treble 
V:1
"^Allegro""^Prelude" z e'/d'/ e'b gb | (e/f/e/d/ e)B GB | E/B/F/B/ G/B/A/B/ G/B/F/B/ | %3
 E/e/d/c/ B/e/d/c/ B/A/G/F/ |!p! E/B/F/B/ G/B/A/B/ G/B/F/B/ | E/e/d/c/ B/e/d/c/ B/A/G/F/ | %6
!f! E/F/G/A/ B/c/d/e/ f/g/a/f/ | g/b/e/f/ g/a/b/c'/ d'/e'/c'/d'/ | e'/b/a/b/ g/b/a/b/ g/b/f/b/ | %9
 e/e'/d'/c'/ b/e/c'/e/ b/e/a/e/ |!p! g/b/f/b/ g/b/a/b/ g/b/f/b/ | e/e'/d'/c'/ b/e/c'/e/ b/e/a/e/ | %12
!f! x/ e/x/e/x/e/x/e/x/e/x/e/ | x/ e/x/e/x/e/x/e/x/e/x/e/ |!p! x/ e/x/e/x/e/x/e/x/e/x/e/ | %15
 x/ e/x/e/x/e/x/e/x/e/x/e/ |!f! x/ e/ x/ x/ x/ e/ x/ x/ x/ e/ x/ x/ | %17
 x/ e/ x/ x/ x/ e/ x/ x/ x/ e/ x/ x/ | x/ e/ x/ x/ x/ e/ x/ x/ x/ e/ x/ x/ | %19
 x/ e/ x/ x/ x/ e/ x/ x/ x/ e/ x/ x/ | x/ e/ x/ x/ x/ e/ x/ x/ x/ e/ x/ x/ | %21
 x/ e/ x/ x/ x/ e/ x/ x/ x/ e/ x/ x/ | x/ e/ x/ x/ x/ e/ x/ x/ x/ e/ x/ x/ | %23
 x/ e/ x/ x/ x/ e/ x/ x/ x/ e/ x/ x/ | x/ e/ x/ x/ x/ e/ x/ x/ x/ e/ x/ x/ | %25
 x/ e/ x/ x/ x/ e/ x/ x/ x/ e/ x/ x/ | x/ e/ x/ x/ x/ e/ x/ x/ x/ e/ x/ x/ | %27
 x/ e/ x/ x/ x/ e/ x/ x/ x/ e/ x/ x/ | E/F/E/F/ G/B/E/F/ G/B/E/F/ | G/A/G/A/ B/e/G/A/ B/e/G/A/ | %30
 B/c/B/c/ =d/g/B/c/ d/g/B/c/ | =d/b/g/e/ d/B/G/E/ =D/C/D/B,/ | C/^D/C/D/ ^E/G/C/D/ E/G/C/D/ | %33
 ^E/F/E/F/ G/c/E/F/ G/c/E/F/ | G/A/G/A/ B/^e/G/A/ B/e/G/A/ | B/g/^e/c/ b/g/a/f/ e/g/c/B/ | %36
 A/c/A/F/ f/d/=e/c/ ^B/d/G/F/ | E/G/E/C/ E/G/c/G/ e/c/g/c/ | ^B/d/B/G/ (g/^^f/)(g/f/) g/d/e/c/ | %39
 ^B/d/B/G/ (^f/^e/)(f/e/) f/d/=e/c/ | ^B/d/B/G/ (A/G/)(A/G/) A/D/E/C/ | %41
 ^B,/F/C/F/ D/F/C/F/ B,/F/D/F/ | G,/F/d/F/ ^B/F/d/F/ B/F/d/F/ | G,/E/c/E/ e/E/c/E/ e/E/c/E/ | %44
!p! G,/F/d/F/ ^B/F/d/F/ B/F/d/F/ | G,/E/c/E/ e/E/c/E/ e/E/c/E/ |!f! G,/^^F/c/F/ e/F/c/F/ e/F/c/F/ | %47
!p! G,/^^F/c/F/ e/F/c/F/ e/F/c/F/ |!f! G,/G/c/G/ d/G/c/G/ d/G/c/G/ | %49
!p! G,/F/^B/F/ d/F/B/F/ d/F/B/F/ |!f! C/c/=B/A/ G/c/G/F/ E/G/E/D/ | C/c/G/F/ E/G/E/D/ C/E/C/B,/ | %52
 ^A,/F/c/F/ e/F/c/F/ e/F/c/F/ | ^A,/F/e/F/ c/F/e/F/ c/F/e/F/ | B,/b/^a/g/ f/b/f/e/ d/f/d/c/ | %55
 B/b/f/e/ d/f/d/c/ B/d/B/A/ | G/=d/e/d/ g/d/b/d/ g/d/e/d/ | G/=d/e/d/ G/d/F/d/ G/d/E/d/ | %58
 c/e/a/g/ a/e/=d/e/ c/e/B/e/ | A/a/g/f/ e/A/f/A/ e/A/=d/A/ |!p! c/e/B/e/ c/e/=d/e/ c/e/B/e/ | %61
 A/a/g/f/ e/A/f/A/ e/A/=d/A/ |!f! x/ A/x/A/x/A/x/A/x/A/x/A/ | x/ A/x/A/x/A/x/A/x/A/x/A/ | %64
!p! x/ A/x/A/x/A/x/A/x/A/x/A/ | x/ A/x/A/x/A/x/A/x/A/x/A/ | %66
!f! x/ A/ x/ x/ x/ A/ x/ x/ x/ A/ x/ x/ | x/ A/ x/ x/ x/ A/ x/ x/ x/ A/ x/ x/ | %68
 x/ A/ x/ x/ x/ A/ x/ x/ x/ A/ x/ x/ | x/ A/ x/ x/ x/ A/ x/ x/ x/ A/ x/ x/ | %70
 x/ A/ x/ x/ x/ A/ x/ x/ x/ A/ x/ x/ | x/ A/ x/ x/ x/ A/ x/ x/ x/ A/ x/ x/ | %72
 x/ A/ x/ x/ x/ A/ x/ x/ x/ A/ x/ x/ | x/ A/ x/ x/ x/ A/ x/ x/ x/ A/ x/ x/ | %74
 x/ A/ x/ x/ x/ A/ x/ x/ x/ A/ x/ x/ | x/ A/ x/ x/ x/ A/ x/ x/ x/ A/ x/ x/ | %76
 x/ A/ x/ x/ x/ A/ x/ x/ x/ A/ x/ x/ | x/ A/ x/ x/ x/ A/ x/ x/ x/ A/ x/ x/ | %78
 A,/B,/A,/B,/ C/E/A,/B,/ C/E/A,/B,/ | C/=D/C/D/ E/A/C/D/ E/A/C/D/ | E/F/E/F/ =G/c/E/F/ G/c/E/F/ | %81
 =G/e/c/=d/ e/c/^A/B/ c/A/F/E/ | =D/C/B,/C/ D/F/B,/C/ D/F/B,/C/ | =D/E/D/E/ F/B/D/E/ F/B/D/E/ | %84
 F/^G/F/G/ A/^d/F/G/ A/d/F/G/ | A/f/d/e/ f/d/^B/c/ d/B/G/F/ | ^E/b/g/a/ b/g/^e/f/ g/e/c/=B/ | %87
 A/c'/a/b/ c'/a/f/g/ a/f/=d/c/ | B/=d'/b/c'/ d'/b/g/a/ b/g/^e/g/ | c/d/c/d/ ^e/g/c/d/ e/g/c/d/ | %90
 ^e/f/e/f/ g/b/e/f/ g/b/e/f/ | g/a/g/a/ b/=d'/g/a/ b/d'/g/a/ | b/=d'/b/g/ ^e/b/g/e/ c/b/a/g/ | %93
 f/g/a/f/ B/a/g/f/ c/g/f/^e/ | =d/=e/f/d/ G/f/e/d/ ^A/e/d/c/ | B/c/=d/B/ ^E/d/c/B/ F/c/B/=A/ | %96
 G/A/B/A/ G/B/A/B/ G/B/F/B/ | ^E/F/G/A/ B/E/=d/E/ c/E/B/E/ | F/A/F/C/ A,/C/F/C/ A/C/F/C/ | %99
 ^E/G/E/C/ E/G/c/G/ ^e/c/g/B/ | A/c/A/F/ A/c/f/c/ a/f/c'/f/ | ^e/g/e/c/ (c'/^b/)(c'/b/) c'/g/a/f/ | %102
 ^e/g/e/c/ (=b/^a/)(b/a/) b/g/=a/f/ | ^e/g/e/c/ (=d/c/)(d/c/) d/G/A/F/ | %104
 (^E/G/c/)b/ (b/g/)(a/f/) ^e/g/c/B/ | (A/c/f/)c'/ (c'/a/)(b/g/) f/a/=d/c/ | %106
 B/=d/=G/F/ ^E/^G/C/B,/ A,/C/F/G/ | A/F/B/F/ c/F/=d/F/ C/F/G/^E/ | %108
 (F/A/)(G/A/) A/x/(G/A/) (F/A/)(=E/A/) | (D/A/)(E/A/) (F/A/)(G/A/) A/x/(F/A/) | %110
 G/A/G/F/ (E/e/)(d/e/) (c/e/)(B/e/) | (^A/e/)(B/e/) (c/e/)(d/e/) e/x/(c/e/) | %112
 d/e/d/c/ B/c/d/e/ f/g/a/f/ | b/B/A/B/ (G/B/)(F/B/) (E/B/)(=D/B/) | C/E/F/G/ A/B/c/=d/ e/f/g/e/ | %115
 a/A/G/A/ (F/A/)(E/A/) (D/A/)(C/A/) | B,/D/E/F/ G/A/B/c/ d/e/f/d/ | %117
 g/E/=D/E/ (C/E/)(B,/E/) (A,/E/)(G,/E/) | (A,/E/c/)B/ c/e/a/g/ a/f/c/e/ | %119
 (B,/F/d/)c/ d/f/a/g/ a/f/d/f/ | (B,/G/B/)A/ B/e/g/f/ g/e/B/e/ | (B,/^A/c/)B/ c/e/^a/g/ a/e/c/e/ | %122
 d/b/^a/g/ f/b/f/e/ d/f/d/c/ | B/b/=a/g/ f/a/f/e/ d/f/d/c/ | B/a/g/f/ e/g/e/d/ c/e/c/B/ | %125
 A/g/f/e/ d/f/d/c/ B/d/B/A/ | G/e/c/B/ A/c/A/G/ F/A/F/E/ | D/F/A/c/ B/d/f/a/ a/g/a/f/ | %128
 g/e/g/b/ e'/b/g/e/ (B/f/e'/)d'/ | e'/b/g/e/ (=d/e/)(c/e/) (d/e/)(B/e/) | %130
 c/e/a/e/ (c/e/)(B/e/) (c/e/)(A/e/) | B/e/g/e/ (B/e/)(A/e/) (B/e/)(G/e/) | %132
 A/e/f/e/ (d/x/)e/ x/ (f/e/)(g/e/) | a3 b g2 | A,/(a/g/a/4f/4) f3 e | %135
 e/e'/d'/c'/ b/e'/a/e'/ g/e'/f/e'/ | e/e/d/c/ B/e/A/e/ G/e/F/e/ | (E/G/B/)d/ (e/g/b/)d'/ e' z | %138
[M:6/4]"^Loure" z8 z B b2 | g3 a Tf2 g2 e2 g2 | f3 g a2 (af) Td2 e2 | c3 d e2 A3 G A2 | %142
 (A2 G>)A F2 (AG)(FE) g2 | c3 d ^B2 c2 g2 (fe) | (d2 c>)d =B2 (B2 ^A>)c d2 | %145
 (d2 e>)g f2 (f2 g>)b ^a2 | b2 (^ag) (a/b/c') a2 (gf) c'2 | e3 f d2 (ed e2) c'2 | %148
 (b<^a) (g/f)d/ e2 (e2 d>)f ^A2 | (3(F^Ac) e2 (3(dec) B3 B b2 | g3 a Tf2 g2 e2 g2 | %151
 f3 g a2 (af) Td2 e2 | c3 d e2 A3 G A2 | (A2 G>)A F2 (AG)(FE) g2 | c3 d ^B2 c2 g2 (fe) | %155
 (d2 c>)d =B2 (B2 ^A>)c d2 | (d2 e>)g f2 (f2 g>)b ^a2 | b2 (^ag) (a/b/c') a2 (gf) c'2 | %158
 e3 f d2 (ed e2) c'2 | (b<^a) (g/f)d/ e2 (e2 d>)f ^A2 | (3(F^Ac) e2 (3(dec) B3 f g2 | %161
 a3 b a2 Tg2 fe a2 | f3 f(ag) (f^e^dc) b2 | b3 a (Tg/f/g) a2 f2 (ga) | (f2 T^e2) f2 f3 g a2 | %165
 Td3 c B2 =e3 f g2 | (g2 f>)g a2 (a2 g>)f e2 | d3 e c2 g3 d =b2 | (b2 ^a>)c' ^^f2 (=e2 d>)c' b2 | %169
 (b^a) (ba) g(a/^^f/) g3 (g/=a/ Ta3/2g/4a/4) | b3 a g2 a2 g^f a2 | %171
 (Bdf)bag (g2 f>)B (Tc3/2B/4c/4) | =d3 e d2 c2 (c^d-) de | (e2 Td2) e2 e3 f g2 | %174
 a3 b a2 Tg2 fe a2 | f3 f(ag) (f^e^dc) b2 | b3 a (Tg/f/g) a2 f2 (ga) | (f2 T^e2) f2 f3 g a2 | %178
 Td3 c B2 =e3 f g2 | (g2 f>)g a2 (a2 g>)f e2 | d3 e c2 g3 d =b2 | (b2 ^a>)c' ^^f2 (=e2 d>)c' b2 | %182
 (b^a) (ba) g(a/^^f/) g3 (g/=a/ Ta3/2g/4a/4) | b3 a g2 a2 g^f a2 | %184
 (Bdf)bag (g2 f>)B (Tc3/2B/4c/4) | =d3 e d2 c2 (c^d-) de | (e2 Td2) e2 e3 z z2 | %187
[M:4/4]"^Gavotte en Rondeau" z4[Q:1/4=144]"^Vivace"!mf! B2 g2 | Tg2 fe f2 a2 | a4 (bg)(af) | %190
 (Bf/g/ a)f (ge)(fd) | (eBG)E GBeg | (Agf)e f!tenuto!g!tenuto!a!tenuto!f | a4 B2 g2 | c2 f2 F2 d2 | %195
 e4!mf! B2 g2 | Tg2 fe f2 a2 | a4 (bg)(af) | (Bf/g/ a)f (ge)(fd) | (eBG)E GBeg | %200
 (Agf)e f!tenuto!g!tenuto!a!tenuto!f | a4 B2 g2 | c2 f2 F2 d2 | e4!mp! B2 g2 | c2 (c^B) (ce)(dB) | %205
 (^B2 c2) (cde)g | (cde)a (df)(ec) | (^Bd)(GF) EGce | (gab)c ^Ecgb | (bg)(af) (A^Bd)f | %210
 fdec G2 ^B2 | C4!p! =B2 g2 | Tg2 fe f2 a2 | a4 (bg)(af) | (Bf/g/ a)f (ge)(fd) | (eBG)E GBeg | %216
 (Agf)e f!tenuto!g!tenuto!a!tenuto!f | a4 B2 g2 | c2 f2 F2 d2 | %219
 e4 !tenuto!E!tenuto!F!tenuto!G!tenuto!A | B2 B2 B2 e2 | B4 x4 | BG(de) AF(de) | (GFE)F GBeg | %224
 f2!mf! f2 f2 b2 | f4 x4 | fd(^ab) ec(ab) | x4 e2 e2 | e4 e2 e2 | e4 x4 | (Fe^a)e (ae)(c'e) | %231
 e4!f! F2 d2 | Td2 cB c2 e2 | e2 dc (de)(fd) | BGEe c3 B | B4!mp! B2 g2 | Tg2 fe f2 a2 | %237
 a4 (bg)(af) | (Bf/g/ a)f (ge)(fd) | (eBG)E GBeg | (Agf)e f!tenuto!g!tenuto!a!tenuto!f | a4 B2 g2 | %242
 c2 f2 F2 d2 | e4"_dolce" EGBe | (Fe=d)c dFGd | cBAG Fcfa | (Bag)f g^ef^B | (cf^e)f gabg | %248
 (acF)G ABc=e | (=dFB,)C =DEFA | (GB!tenuto!E)F GAB=d | (cBA)c f^efc | (^Ac=e)=g fe=dc | %253
 (=dcB)f b^abd | (^Ecb)=d' c'b=ag | (agf)a B=d(ag) | Ac(gf) GB(fe) | FA(e=d) ^EdcB | Acfg g3 f | %259
 f4!mf! e2 g2 | Tg2 fe f2 a2 | a4 (bg)(af) | (Bf/g/ a)f (ge)(fd) | (eBG)E GBeg | %264
 (Agf)e f!tenuto!g!tenuto!a!tenuto!f | a4 B2 g2 | c2 f2 F2 d2 | e4!f! gf g2 | c^B c2 fe f2 | %269
 ^B4!mp! (EG)(ce) | (FA)(df) (G=B)(^eg) | (g2 f2) (=ed)(ec) | x2 e2 (dc) f2 | (edcB) dc d2 | %274
 g^^f g2 c^B c2 | ^a4 (g^^fg)b | (g^^fg)b (g^^fg)b | g4 z2 g2 | g4 z2 g2 | g4 z2 g2 | g4 z2 g2 | %281
 e8- | e4 (^^F^AFA) | (D^E^^FG ^ABcd | ed^^cd edcd) | (^^F^A^ce) (d^^f^ac') | %286
 (b^a/g/^^fg) (3(Bcd) (3(cB^A) | G4!mp! B2 g2 | Tg2 fe f2 a2 | a4 (bg)(af) | (Bf/g/a)f (ge)(fd) | %291
 (eBG)E GBeg | (Agf)e f!tenuto!g!tenuto!a!tenuto!f | a4 B2 g2 | c2 f2 F2 d2 | !fermata!e4 z4 | %296
[M:3/4] g2 gf g2 | e2 (fd) e2 | B2 c2 d2 | ed ef ef | g2 f2 (fg/a/) | gf ga bg | e2 a2 g2 | f6 | %304
 g2 gf g2 | e2 (fd) e2 | B2 c2 d2 | ed ef ef | g2 f2 (fg/a/) | gf ga bg | e2 a2 g2 | f6 | %312
 b2 b^a b2 | d2 (ec) d2 | b2 b^a b2 |{/c} B6 | a2 g2 f2 | e2 ef g2 | gf a2 g2 | fe fd ef | %320
 g2 x2 x2 | c3 e df | (GA B)c =dE | (A,E =d)B cA | (FG A)B cA | (G,F c)A BG | (EF G)A BG | %327
 (AE F)A DF | (GB c)e fa | (ed e)d cB | g2 gf g2 | e2 fd e2 | GB (EG B)=d | (A,E =d)B cA | %334
 Fe (^df a)E | (DB f)a g2 | f2 B2 d2 | e6 | b2 b^a b2 | d2 (ec) d2 | b2 b^a b2 |{/c} B6 | %342
 a2 g2 f2 | e2 ef g2 | gf a2 g2 | fe fd ef | g2 x2 x2 | c3 e df | (GA B)c =dE | (A,E =d)B cA | %350
 (FG A)B cA | (G,F c)A BG | (EF G)A BG | (AE F)A DF | (GB c)e fa | (ed e)d cB | g2 gf g2 | %357
 e2 fd e2 | GB (EG B)=d | (A,E =d)B cA | Fe (^df a)E | (DB f)a g2 | f2 B2 d2 | e6 | B6- | B6- | %366
 B6 | A6 | EG GB Be | (dB) (Bd) (df) | fg af b2 | (ag) (ag) (fe) | B6- | B6 | e6- | e6 | Bd df fb | %377
 (cd e)g ^Af | (ed) (cB) F^A | B,6 | B6- | B6- | B6 | A6 | EG GB Be | (dB) (Bd) (df) | fg af b2 | %387
 (ag) (ag) (fe) | B6- | B6 | e6- | e6 | Bd df fb | (cd e)g ^Af | (ed) (cB) F^A | B,6 | %396
 d2 (ed) (cB) | ef ga bg | (f^e f)e ^dc | (fg a)c F2 | (^Ec b)g af | gc =dB (^Ec | b)g af c^e | %403
 (fc F)c fg | a2 ba gf | (ga b)=d Gd | ce af ge | (dc) (ed) (cB) | g2 (ag fe) | fd b4 | GB cA Fd | %411
 e6 | d2 (ed) (cB) | ef ga bg | (f^e f)e ^dc | (fg a)c F2 | (^Ec b)g af | gc =dB (^Ec | %418
 b)g af c^e | (fc F)c fg | a2 ba gf | (ga b)=d Gd | ce af ge | (dc) (ed) (cB) | g2 (ag fe) | %425
 fd b4 | GB cA Fd | e6 | g2 gf g2 | e2 (fd) e2 | B2 c2 d2 | ed ef ef | g2 f2 (fg/a/) | gf ga bg | %434
 e2 a2 g2 | f6 | b2 b^a b2 | d2 (ec) d2 | b2 b^a b2 |{/c} B6 | a2 g2 f2 | e2 ef g2 | gf a2 g2 | %443
 fe fd ef | g2 x2 x2 | c3 e df | (GA B)c =dE | (A,E =d)B cA | (FG A)B cA | (G,F c)A BG | %450
 (EF G)A BG | (AE F)A DF | (GB c)e fa | (ed e)d cB | g2 gf g2 | e2 fd e2 | GB (EG B)=d | %457
 (A,E =d)B cA | Fe (^df a)E | (DB f)a g2 | f2 B2 d2 | e6 | %462
[M:2/2][Q:1/4=200]"^Prestissimo""^Bourrée" z4 z2 B2 | c2 (AB cd e2) | (GB e2) (ed e2) | %465
 FGAB cA B2 | (AGFG) E2 ge | fd(Bc def)a | ge(Bd efg)b |!p! fd(Bc def)a | ge(Bd efg)b | %471
!f! (edcd) (edcB) | (^AGFG ABcd) |!p! (edcd) (edcB) | (^AGFG ABce) |!f! (dcB)c def=A | %476
 GBed (e^ab)c | (EdcB) (FcB^A) | BFDF B,2 B2 | c2 (AB cd e2) | (GB e2) (ed e2) | FGAB cA B2 | %482
 (AGFG) E2 ge | fd(Bc def)a | ge(Bd efg)b |!p! fd(Bc def)a | ge(Bd efg)b |!f! (edcd) (edcB) | %488
 (^AGFG ABcd) |!p! (edcd) (edcB) | (^AGFG ABce) |!f! (dcB)c def=A | GBed (e^ab)c | (EdcB) (FcB^A) | %494
 BFDF B,2 f2 | g2 (ef g^a b2) | (df b2) (b^a b2) | ce=ac ^Bdgf | (fede) c2 ec | (GABc =d)gbd | %500
 (cBAB c)eac |!p! (GABc =d)gbd | (cBAB c)eac |!f! =dBGF (^EGB)d | cAF=E (=DCD)c | (Bagf) (cgf^e) | %506
 fcAc F2 af | df(Bc def)a | gb(ef gab)=d | ceAc (fga)f | (edc)d B2 B2 | c2 (AB cdef) | %512
 dfaf (dB)(cA) | Ge b2 (agfg) | eBGB E2 f2 | g2 (ef g^a b2) | (df b2) (b^a b2) | ce=ac ^Bdgf | %518
 (fede) c2 ec | (GABc =d)gbd | (cBAB c)eac |!p! (GABc =d)gbd | (cBAB c)eac |!f! =dBGF (^EGB)d | %524
 cAF=E (=DCD)c | (Bagf) (cgf^e) | fcAc F2 af | df(Bc def)a | gb(ef gab)=d | ceAc (fga)f | %530
 (edc)d B2 B2 | c2 (AB cdef) | dfaf (dB)(cA) | Ge b2 (agfg) | eBGB E2 f2 | g2 (ef g^a b2) | %536
 (df b2) (b^a b2) | ce=ac ^Bdgf | (fede) c2 ec | (GABc =d)gbd | (cBAB c)eac |!p! (GABc =d)gbd | %542
 (cBAB c)eac |!f! =dBGF (^EGB)d | cAF=E (=DCD)c | (Bagf) (cgf^e) | fcAc F2 af | df(Bc def)a | %548
 gb(ef gab)=d | ceAc (fga)f | (edc)d B2 B2 | c2 (AB cdef) | dfaf (dB)(cA) | Ge b2 (agfg) | %554
 eBGB E2 z2 |[M:6/8][Q:1/4=132]"^Allegro""^Giga" z3 z2 b | (ge)B E/F/G/A/B/c/ | (d/e/f)f (A/G/A)f | %558
 B,/C/D/E/F/G/ A/G/A/c/B/A/ | G/F/G/A/B/G/ E>FG/A/ | B/G/E/G/B/=d/ c/e/a/e/c/A/ | %561
!p! B/G/E/G/B/=d/ c/e/a/e/c/A/ |!f! ^d/f/a/f/d/B/ e/a/g/f/g/e/ | (B/d/f)a g/f/e/f/g/e/ | %564
 (^A/c/e)g f/e/d/c/B/=A/ | (G/B/d)f e/d/c/d/e/c/ | F/c/B/c/d/B/ E/G/c/d/e/f/ | %567
 g/f/e/d/c/e/ (b/^a/g/f/e/d/) | (e/d/e)e C/E/G/E/C/E/ | (^A/c/e)e ^A,/C/F/C/A,/C/ | %570
 F/(e/d/c/B/^A/) fe/d/c/d/ | BF/E/D/C/ B,2 b | (ge)B E/F/G/A/B/c/ | (d/e/f)f (A/G/A)f | %574
 B,/C/D/E/F/G/ A/G/A/c/B/A/ | G/F/G/A/B/G/ E>FG/A/ | B/G/E/G/B/=d/ c/e/a/e/c/A/ | %577
!p! B/G/E/G/B/=d/ c/e/a/e/c/A/ |!f! ^d/f/a/f/d/B/ e/a/g/f/g/e/ | (B/d/f)a g/f/e/f/g/e/ | %580
 (^A/c/e)g f/e/d/c/B/=A/ | (G/B/d)f e/d/c/d/e/c/ | F/c/B/c/d/B/ E/G/c/d/e/f/ | %583
 g/f/e/d/c/e/ (b/^a/g/f/e/d/) | (e/d/e)e C/E/G/E/C/E/ | (^A/c/e)e ^A,/C/F/C/A,/C/ | %586
 F/(e/d/c/B/^A/) fe/d/c/d/ | BF/E/D/C/ B,2 f | dBF/G/ A/B/c/d/e/f/ | (g/a/b)b (=d/c/d)b | %590
 ^E/F/G/A/B/=d/ c/^d/^e/f/g/b/ | (a/g/)(b/a/)(g/f/) gcg | a/f/c/f/a/f/ =d/B/F/B/d/B/ | %593
 g/e/B/e/g/e/ c/A/E/A/c/A/ | f/e/f/g/a/b/ c=d/c/B/c/ | AE/=D/C/B,/ A,2 c | %596
 ^D/F/A/c/B/A/ G/B/d/f/e/d/ | C/E/G/B/A/G/ F/A/c/e/d/c/ | B/d/f/a/g/f/ ba/g/f/e/ | %599
 d/c/d/e/f/d/ (B/c/d/e/f/g/) | (a/g/a)a F/A/c/A/F/A/ | (d/f/a)a D/F/B/F/D/F/ | %602
 B,/(a/g/f/e/d/) ba/g/f/g/ | eB/A/G/F/ E2 f | dBF/G/ A/B/c/d/e/f/ | (g/a/b)b (=d/c/d)b | %606
 ^E/F/G/A/B/=d/ c/^d/^e/f/g/b/ | (a/g/)(b/a/)(g/f/) gcg | a/f/c/f/a/f/ =d/B/F/B/d/B/ | %609
 g/e/B/e/g/e/ c/A/E/A/c/A/ | f/e/f/g/a/b/ c=d/c/B/c/ | AE/=D/C/B,/ A,2 c | %612
 ^D/F/A/c/B/A/ G/B/d/f/e/d/ | C/E/G/B/A/G/ F/A/c/e/d/c/ | B/d/f/a/g/f/ ba/g/f/e/ | %615
 d/c/d/e/f/d/ (B/c/d/e/f/g/) | (a/g/a)a F/A/c/A/F/A/ | (d/f/a)a D/F/B/F/D/F/ | %618
 B,/(a/g/f/e/d/) ba/g/f/g/ | eB/A/G/F/ E2 z |] %620
V:2
 x6 | x6 | x6 | x6 | x6 | x6 | x6 | x6 | x6 | x6 | x6 | x6 | g/x/e/x/d/x/e/x/f/x/d/ x/ | %13
 e/x/g/x/f/x/g/x/a/x/f/ x/ | g/x/e/x/d/x/e/x/f/x/d/ x/ | e/x/g/x/f/x/g/x/a/x/f/ x/ | %16
 g/x/g/e/ g/x/g/e/ g/x/g/e/ | g/x/g/d/ g/x/g/d/ g/x/g/d/ | g/x/g/=d/ g/x/g/d/ g/x/g/d/ | %19
 a/x/a/c/ a/x/a/c/ a/x/a/c/ | a/x/a/B/ a/x/a/B/ a/x/a/B/ | g/x/g/B/ g/x/g/B/ g/x/g/B/ | %22
 g/x/g/A/ g/x/g/A/ g/x/g/A/ | f/x/f/A/ f/x/f/A/ f/x/f/A/ | f/x/f/G/ f/x/f/G/ f/x/f/G/ | %25
 e/x/e/G/ e/x/e/G/ e/x/e/G/ | e/x/e/F/ e/x/e/F/ e/x/e/F/ | d/x/d/F/ d/x/d/F/ d/x/d/F/ | x6 | x6 | %30
 x6 | x6 | x6 | x6 | x6 | x6 | x6 | x6 | x6 | x6 | x6 | x6 | x6 | x6 | x6 | x6 | x6 | x6 | x6 | %49
 x6 | x6 | x6 | x6 | x6 | x6 | x6 | x6 | x6 | x6 | x6 | x6 | x6 | c/x/A/x/G/x/A/x/B/x/G/ x/ | %63
 A/x/c/x/B/x/c/x/=d/x/B/ x/ | c/x/A/x/G/x/A/x/B/x/G/ x/ | A/x/c/x/B/x/c/x/=d/x/B/ x/ | %66
 c/x/c/A/ c/x/c/A/ c/x/c/A/ | c/x/c/G/ c/x/c/G/ c/x/c/G/ | c/x/c/=G/ c/x/c/G/ c/x/c/G/ | %69
 =d/x/d/F/ d/x/d/F/ d/x/d/F/ | =d/x/d/E/ d/x/d/E/ d/x/d/E/ | c/x/c/E/ c/x/c/E/ c/x/c/E/ | %72
 c/x/c/=D/ c/x/c/D/ c/x/c/D/ | B/x/B/=D/ B/x/B/D/ B/x/B/D/ | B/x/B/C/ B/x/B/C/ B/x/B/C/ | %75
 A/x/A/C/ A/x/A/C/ A/x/A/C/ | A/x/A/B,/ A/x/A/B,/ A/x/A/B,/ | G/x/G/B,/ G/x/G/B,/ G/x/G/B,/ | x6 | %79
 x6 | x6 | x6 | x6 | x6 | x6 | x6 | x6 | x6 | x6 | x6 | x6 | x6 | x6 | x6 | x6 | x6 | x6 | x6 | %98
 x6 | x6 | x6 | x6 | x6 | x6 | x6 | x6 | x6 | x6 | x2 x/ A/ x x2 | x2 x2 x/ A/ x | x6 | %111
 x4 x/ e/ x | x6 | x6 | x6 | x6 | x6 | x6 | x6 | x6 | x6 | x6 | x6 | x6 | x6 | x6 | x6 | x6 | x6 | %129
 x6 | x6 | x6 | x2 x/ e/x/e/ x2 | B,3 x E2 | x2 B4 | x6 | x6 | x5 z |[M:6/4] x12 | z6 z2 z E e2 | %140
 d3 e c2 B2 z2 G2 | A4 G2 F4 B,2 | E2 x2 x8 | z2 z2 F2 E2 z2 z2 | z2 z2 ^E2 F2 z2 F2 | %145
 G4 ^A2 B4 c2 | d2 e2 c2 f2 z2 z2 | z2 z2 F2 ^A,2 z2 z2 | z2 z2 ^A,2 B,2 z2 E2 | %149
 z2 z2 F2 B,3 z z2 | z6 z2 z E e2 | d3 e c2 B2 z2 G2 | A4 G2 F4 B,2 | E2 x2 x8 | %154
 z2 z2 F2 E2 z2 z2 | z2 z2 ^E2 F2 z2 F2 | G4 ^A2 B4 c2 | d2 e2 c2 f2 z2 z2 | z2 z2 F2 ^A,2 z2 z2 | %159
 z2 z2 ^A,2 B,2 z2 E2 | z2 z2 F2 B,3 z z2 | z2 z c d2 e3 =d c2 | =d2 c2 B2 c2 z2 z2 | %163
 ^E3 z z2 F2 =d2 B2 | c4 x2 F3 z z2 | z2 z2 A2 G3 z E2 | A2 z2 F2 ^B4 c2 | F2 G2 A2 G3 z z2 | %168
 c4 z2 ^^F3 z G2 | c2 d2 z2 G3 x x2 | z2 z2 ^E2 F2 z2 =E2 | D z z2 E2 B3 z z2 | %172
 z2 z F G2 A2 F2 E2 | B,4 x2 E3 z z2 | z2 z c d2 e3 =d c2 | =d2 c2 B2 c2 z2 z2 | %176
 ^E3 z z2 F2 =d2 B2 | c4 x2 F3 z z2 | z2 z2 A2 G3 z E2 | A2 z2 F2 ^B4 c2 | F2 G2 A2 G3 z z2 | %181
 c4 z2 ^^F3 z G2 | c2 d2 z2 G3 x x2 | z2 z2 ^E2 F2 z2 =E2 | D z z2 E2 B3 z z2 | %185
 z2 z F G2 A2 F2 E2 | B,4 x2 E3 x3 |[M:4/4] x4 E2 x2 | A2 x6 | B4 x4 | x8 | x8 | x8 | B4 E2 x2 | %194
 A2 x2 B,2 x2 | E4 E2 x2 | A2 x6 | B4 x4 | x8 | x8 | x8 | B4 E2 x2 | A2 x2 B,2 x2 | E4 E2 x2 | %204
 A2 x2 G2 x2 | F4 E2 x2 | F2 x6 | x8 | x8 | x8 | x8 | x4 E2 x2 | A2 x6 | B4 x4 | x8 | x8 | x8 | %217
 B4 E2 x2 | A2 x2 B,2 x2 | E4 x4 | z2 (EF) (GF)(GF) | (GFGE) cA(de) | x8 | x8 | z2 (Bc) (dc)(dc) | %225
 (dcdB) ge(^ab) | x8 | (ed)(cB) (cd)(ed) | (cB^AB) (cd)(ec) | F4 (^ae)(c'e) | x8 | F4 B,2 x2 | %232
 E2 x6 | F2 x6 | x4 F4 | B,4 E2 x2 | A2 x6 | B4 x4 | x8 | x8 | x8 | B4 E2 x2 | A2 x2 B,2 x2 | %243
 E4 x4 | x8 | x8 | x8 | x8 | x8 | x8 | x8 | x8 | x8 | x8 | x8 | x8 | x8 | x8 | x4 c4 | F4 G2 x2 | %260
 A2 x6 | B4 x4 | x8 | x8 | x8 | B4 E2 x2 | A2 x2 B,2 x2 | E4 ed e2 | AG A2 dc d2 | G4 x4 | x8 | %271
 A4 ^A x3 | dB G2 E2 F2 | B,2 x2 B, x3 | E x3 E x3 | D4 B x3 | c x3 d x3 | (ecec) Gc(ec) | %278
 (dBdB) GB(dB) | (ecec) Gc(ec) | (dBdB) GB(dB) | (dBdB) (cBcB) | (^AcAc) x4 | x8 | x8 | x8 | x8 | %287
 x4 E2 x2 | A2 x6 | B4 x4 | x8 | x8 | x8 | B4 E2 x2 | A2 x2 B,2 x2 | E4 z4 |[M:3/4] e2 d2 B2 | %297
 c2 x2 x2 | G2 A2 F2 | E x x4 | e2 d2 B2 | e z z2 z2 | c2 d2 e2 | B6 | e2 d2 B2 | c2 x2 x2 | %306
 G2 A2 F2 | E x x4 | e2 d2 B2 | e z z2 z2 | c2 d2 e2 | B6 | d2 c2 B2 | A2 x2 x2 | G2 F2 E2 | D6 | %316
 D2 z2 z2 | C2 cd e2 | d2 c2 ^B2 | c2 z2 A2 | E2 F2 G2 | C3 x x2 | x6 | x6 | x6 | x6 | C2 x2 x2 | %327
 x6 | x6 | x6 | e2 d2 B2 | c2 x2 x2 | x6 | x6 | x6 | x2 x2 E2 | A2 G2 B,2 | E6 | d2 c2 B2 | %339
 A2 x2 x2 | G2 F2 E2 | D6 | D2 z2 z2 | C2 cd e2 | d2 c2 ^B2 | c2 z2 A2 | E2 F2 G2 | C3 x x2 | x6 | %349
 x6 | x6 | x6 | C2 x2 x2 | x6 | x6 | x6 | e2 d2 B2 | c2 x2 x2 | x6 | x6 | x6 | x2 x2 E2 | %362
 A2 G2 B,2 | E6 | G2 AG FE | FG{G} A4 | GF AG FE | DE F2 B,2 | x6 | x6 | x6 | x6 | G2 AG FE | %373
 FG{G} A4 | (GE) (EG) (GB) | ^AB c2 F2 | x6 | x6 | x6 | x6 | G2 AG FE | FG{G} A4 | GF AG FE | %383
 DE F2 B,2 | x6 | x6 | x6 | x6 | G2 AG FE | FG{G} A4 | (GE) (EG) (GB) | ^AB c2 F2 | x6 | x6 | x6 | %395
 x6 | A2 x2 x2 | G2 =d2 z2 | B2 x2 x2 | A2 x2 x2 | x6 | x6 | x6 | x6 | d2 x2 x2 | e2 x2 x2 | x6 | %407
 x6 | E2 x2 x2 | A x A4 | x6 | x6 | A2 x2 x2 | G2 =d2 z2 | B2 x2 x2 | A2 x2 x2 | x6 | x6 | x6 | %419
 x6 | d2 x2 x2 | e2 x2 x2 | x6 | x6 | E2 x2 x2 | A x A4 | x6 | x6 | e2 d2 B2 | c2 x2 x2 | %430
 G2 A2 F2 | E x x4 | e2 d2 B2 | e z z2 z2 | c2 d2 e2 | B6 | d2 c2 B2 | A2 x2 x2 | G2 F2 E2 | D6 | %440
 D2 z2 z2 | C2 cd e2 | d2 c2 ^B2 | c2 z2 A2 | E2 F2 G2 | C3 x x2 | x6 | x6 | x6 | x6 | C2 x2 x2 | %451
 x6 | x6 | x6 | e2 d2 B2 | c2 x2 x2 | x6 | x6 | x6 | x2 x2 E2 | A2 G2 B,2 | E6 |[M:2/2] x6 E2 | %463
 A2 x2 x4 | x8 | x8 | x8 | x8 | x8 | x8 | x8 | x8 | x8 | x8 | x8 | x8 | x8 | x8 | x6 E2 | %479
 A2 x2 x4 | x8 | x8 | x8 | x8 | x8 | x8 | x8 | x8 | x8 | x8 | x8 | x8 | x8 | x8 | x6 B2 | %495
 e2 x2 x4 | x8 | x8 | x8 | x8 | x8 | x8 | x8 | x8 | x8 | x8 | x8 | x8 | x8 | x8 | x4 x2 E2 | %511
 A2 x2 x4 | x8 | x4 B2 x2 | x6 B2 | e2 x2 x4 | x8 | x8 | x8 | x8 | x8 | x8 | x8 | x8 | x8 | x8 | %526
 x8 | x8 | x8 | x8 | x4 x2 E2 | A2 x2 x4 | x8 | x4 B2 x2 | x6 B2 | e2 x2 x4 | x8 | x8 | x8 | x8 | %540
 x8 | x8 | x8 | x8 | x8 | x8 | x8 | x8 | x8 | x8 | x4 x2 E2 | A2 x2 x4 | x8 | x4 B2 x2 | x8 | %555
[M:6/8] x6 | x6 | x6 | x6 | x6 | x6 | x6 | x6 | x6 | x6 | x6 | x6 | x6 | x6 | x6 | x6 | x6 | x6 | %573
 x6 | x6 | x6 | x6 | x6 | x6 | x6 | x6 | x6 | x6 | x6 | x6 | x6 | x6 | x6 | x6 | x6 | x6 | x6 | %592
 x6 | x6 | x6 | x6 | x6 | x3 z z2 | x6 | x6 | x6 | x6 | x6 | x6 | x6 | x6 | x6 | x6 | x6 | x6 | %610
 x6 | x6 | x6 | x6 | x6 | x6 | x6 | x6 | x6 | x6 |] %620
V:3
 x6 | x6 | x6 | x6 | x6 | x6 | x6 | x6 | x6 | x6 | x6 | x6 | x6 | x6 | x6 | x6 | x6 | x6 | x6 | %19
 x6 | x6 | x6 | x6 | x6 | x6 | x6 | x6 | x6 | x6 | x6 | x6 | x6 | x6 | x6 | x6 | x6 | x6 | x6 | %38
 x6 | x6 | x6 | x6 | x6 | x6 | x6 | x6 | x6 | x6 | x6 | x6 | x6 | x6 | x6 | x6 | x6 | x6 | x6 | %57
 x6 | x6 | x6 | x6 | x6 | x6 | x6 | x6 | x6 | x6 | x6 | x6 | x6 | x6 | x6 | x6 | x6 | x6 | x6 | %76
 x6 | x6 | x6 | x6 | x6 | x6 | x6 | x6 | x6 | x6 | x6 | x6 | x6 | x6 | x6 | x6 | x6 | x6 | x6 | %95
 x6 | x6 | x6 | x6 | x6 | x6 | x6 | x6 | x6 | x6 | x6 | x6 | x6 | x6 | x6 | x6 | x6 | x6 | x6 | %114
 x6 | x6 | x6 | x6 | x6 | x6 | x6 | x6 | x6 | x6 | x6 | x6 | x6 | x6 | x6 | x6 | x6 | x6 | x6 | %133
 d3 x B2 | x6 | x6 | x6 | x6 |[M:6/4] x12 | x12 | x12 | x12 | x12 | x12 | x12 | x12 | x12 | %147
 x6 F2 x4 | x2 x2 F2 F2 x2 x2 | x2 x2 x2 F3 x3 | x12 | x12 | x12 | x12 | x12 | x12 | x12 | x12 | %158
 x6 F2 x4 | x2 x2 F2 F2 x2 x2 | x2 x2 x2 F3 x3 | x12 | x12 | c3 x x2 c2 x2 x2 | x4 x2 A3 x x2 | %165
 x2 x2 x2 B3 x B2 | c2 x2 c2 x2 x2 x2 | x2 x2 x2 ^B3 x x2 | x2 x2 x2 x2 x2 d2 | x2 x2 x2 B3 x x2 | %170
 x2 x2 c2 c2 x2 c2 | x4 B2 x2 x4 | x12 | F4 x2 x3 x3 | x12 | x12 | c3 x x2 c2 x2 x2 | %177
 x4 x2 A3 x x2 | x2 x2 x2 B3 x B2 | c2 x2 c2 x2 x2 x2 | x2 x2 x2 ^B3 x x2 | x2 x2 x2 x2 x2 d2 | %182
 x2 x2 x2 B3 x x2 | x2 x2 c2 c2 x2 c2 | x4 B2 x2 x4 | x12 | F4 x2 x3 x3 |[M:4/4] x8 | x8 | x8 | %190
 x8 | x8 | x8 | x8 | x8 | x8 | x8 | x8 | x8 | x8 | x8 | x8 | x8 | x8 | x8 | x8 | x8 | x8 | x8 | %209
 x8 | x8 | x8 | x8 | x8 | x8 | x8 | x8 | x8 | x8 | x8 | x8 | x8 | x8 | x8 | x8 | x8 | x8 | x8 | %228
 x8 | x8 | x8 | x8 | x8 | x8 | x8 | F4 x4 | x8 | x8 | x8 | x8 | x8 | x8 | x8 | x8 | x8 | x8 | x8 | %247
 x8 | x8 | x8 | x8 | x8 | x8 | x8 | x8 | x8 | x8 | x8 | x8 | c4 B2 x2 | x8 | x8 | x8 | x8 | x8 | %265
 x8 | x8 | x8 | x8 | x8 | x8 | x8 | x6 c2 | B2 x2 F x3 | d x7 | c4 x4 | x8 | x8 | x8 | x8 | x8 | %281
 x8 | x8 | x8 | x8 | x8 | x8 | x8 | x8 | x8 | x8 | x8 | x8 | x8 | x8 | x8 |[M:3/4] x6 | x6 | x6 | %299
 x6 | x6 | x6 | x6 | x6 | x6 | x6 | x6 | x6 | x6 | x6 | x6 | x6 | x6 | x6 | e2 d2 c2 | x6 | %316
 ^B2 x2 x2 | c2 x2 x2 | x6 | x2 x2 c2 | c2 c2 ^B2 | G3 x x2 | x6 | x6 | x6 | x6 | x6 | x6 | x6 | %329
 x6 | x6 | x6 | x6 | x6 | x6 | x2 x2 B2 | c2 x2 F2 | B6 | x6 | x6 | e2 d2 c2 | x6 | ^B2 x2 x2 | %343
 c2 x2 x2 | x6 | x2 x2 c2 | c2 c2 ^B2 | G3 x x2 | x6 | x6 | x6 | x6 | x6 | x6 | x6 | x6 | x6 | x6 | %358
 x6 | x6 | x6 | x2 x2 B2 | c2 x2 F2 | B6 | x6 | x6 | x6 | x6 | x6 | x6 | x6 | x6 | x6 | x6 | x6 | %375
 x6 | x6 | x6 | x6 | x6 | x6 | x6 | x6 | x6 | x6 | x6 | x6 | x6 | x6 | x6 | x6 | x6 | x6 | x6 | %394
 x6 | x6 | x6 | B2 x2 x2 | x6 | x6 | x6 | x6 | x6 | x6 | x6 | x6 | x6 | x6 | B2 x2 x2 | x6 | x6 | %411
 x6 | x6 | B2 x2 x2 | x6 | x6 | x6 | x6 | x6 | x6 | x6 | x6 | x6 | x6 | B2 x2 x2 | x6 | x6 | x6 | %428
 x6 | x6 | x6 | x6 | x6 | x6 | x6 | x6 | x6 | x6 | e2 d2 c2 | x6 | ^B2 x2 x2 | c2 x2 x2 | x6 | %443
 x2 x2 c2 | c2 c2 ^B2 | G3 x x2 | x6 | x6 | x6 | x6 | x6 | x6 | x6 | x6 | x6 | x6 | x6 | x6 | x6 | %459
 x2 x2 B2 | c2 x2 F2 | B6 |[M:2/2] x8 | x8 | x8 | x8 | x8 | x8 | x8 | x8 | x8 | x8 | x8 | x8 | x8 | %475
 x8 | x8 | x8 | x8 | x8 | x8 | x8 | x8 | x8 | x8 | x8 | x8 | x8 | x8 | x8 | x8 | x8 | x8 | x8 | %494
 x8 | x8 | x8 | x8 | x8 | x8 | x8 | x8 | x8 | x8 | x8 | x8 | x8 | x8 | x8 | x8 | x8 | x8 | x8 | %513
 x8 | x8 | x8 | x8 | x8 | x8 | x8 | x8 | x8 | x8 | x8 | x8 | x8 | x8 | x8 | x8 | x8 | x8 | x8 | %532
 x8 | x8 | x8 | x8 | x8 | x8 | x8 | x8 | x8 | x8 | x8 | x8 | x8 | x8 | x8 | x8 | x8 | x8 | x8 | %551
 x8 | x8 | x8 | x8 |[M:6/8] x6 | x6 | x6 | x6 | x6 | x6 | x6 | x6 | x6 | x6 | x6 | x6 | x6 | x6 | %569
 x6 | x6 | x6 | x6 | x6 | x6 | x6 | x6 | x6 | x6 | x6 | x6 | x6 | x6 | x6 | x6 | x6 | x6 | x6 | %588
 x6 | x6 | x6 | x6 | x6 | x6 | x6 | x6 | x6 | x6 | x6 | x6 | x6 | x6 | x6 | x6 | x6 | x6 | x6 | %607
 x6 | x6 | x6 | x6 | x6 | x6 | x6 | x6 | x6 | x6 | x6 | x6 | x6 |] %620
V:4
 x6 | x6 | x6 | x6 | x6 | x6 | x6 | x6 | x6 | x6 | x6 | x6 | x6 | x6 | x6 | x6 | x6 | x6 | x6 | %19
 x6 | x6 | x6 | x6 | x6 | x6 | x6 | x6 | x6 | x6 | x6 | x6 | x6 | x6 | x6 | x6 | x6 | x6 | x6 | %38
 x6 | x6 | x6 | x6 | x6 | x6 | x6 | x6 | x6 | x6 | x6 | x6 | x6 | x6 | x6 | x6 | x6 | x6 | x6 | %57
 x6 | x6 | x6 | x6 | x6 | x6 | x6 | x6 | x6 | x6 | x6 | x6 | x6 | x6 | x6 | x6 | x6 | x6 | x6 | %76
 x6 | x6 | x6 | x6 | x6 | x6 | x6 | x6 | x6 | x6 | x6 | x6 | x6 | x6 | x6 | x6 | x6 | x6 | x6 | %95
 x6 | x6 | x6 | x6 | x6 | x6 | x6 | x6 | x6 | x6 | x6 | x6 | x6 | x6 | x6 | x6 | x6 | x6 | x6 | %114
 x6 | x6 | x6 | x6 | x6 | x6 | x6 | x6 | x6 | x6 | x6 | x6 | x6 | x6 | x6 | x6 | x6 | x6 | x6 | %133
 F3 x x2 | x6 | x6 | x6 | x6 |[M:6/4] x12 | x12 | x12 | x12 | x12 | x12 | x12 | x12 | x12 | x12 | %148
 x12 | x12 | x12 | x12 | x12 | x12 | x12 | x12 | x12 | x12 | x12 | x12 | x12 | x12 | x12 | x12 | %164
 x12 | x12 | x12 | x12 | x12 | x12 | x12 | x12 | x12 | x12 | x12 | x12 | x12 | x12 | x12 | x12 | %180
 x12 | x12 | x12 | x12 | x12 | x12 | x12 |[M:4/4] x8 | x8 | x8 | x8 | x8 | x8 | x8 | x8 | x8 | x8 | %197
 x8 | x8 | x8 | x8 | x8 | x8 | x8 | x8 | x8 | x8 | x8 | x8 | x8 | x8 | x8 | x8 | x8 | x8 | x8 | %216
 x8 | x8 | x8 | x8 | x8 | x8 | x8 | x8 | x8 | x8 | x8 | x8 | x8 | x8 | x8 | x8 | x8 | x8 | x8 | %235
 x8 | x8 | x8 | x8 | x8 | x8 | x8 | x8 | x8 | x8 | x8 | x8 | x8 | x8 | x8 | x8 | x8 | x8 | x8 | %254
 x8 | x8 | x8 | x8 | x8 | x8 | x8 | x8 | x8 | x8 | x8 | x8 | x8 | x8 | x8 | x8 | x8 | x8 | x8 | %273
 F2 x6 | x8 | x8 | x8 | x8 | x8 | x8 | x8 | x8 | x8 | x8 | x8 | x8 | x8 | x8 | x8 | x8 | x8 | x8 | %292
 x8 | x8 | x8 | x8 |[M:3/4] x6 | x6 | x6 | x6 | x6 | x6 | x6 | x6 | x6 | x6 | x6 | x6 | x6 | x6 | %310
 x6 | x6 | x6 | x6 | x6 | x6 | x6 | G2 x2 x2 | x6 | x6 | x6 | x6 | x6 | x6 | x6 | x6 | x6 | x6 | %328
 x6 | x6 | x6 | x6 | x6 | x6 | x6 | x6 | x6 | x6 | x6 | x6 | x6 | x6 | x6 | G2 x2 x2 | x6 | x6 | %346
 x6 | x6 | x6 | x6 | x6 | x6 | x6 | x6 | x6 | x6 | x6 | x6 | x6 | x6 | x6 | x6 | x6 | x6 | x6 | %365
 x6 | x6 | x6 | x6 | x6 | x6 | x6 | x6 | x6 | x6 | x6 | x6 | x6 | x6 | x6 | x6 | x6 | x6 | x6 | %384
 x6 | x6 | x6 | x6 | x6 | x6 | x6 | x6 | x6 | x6 | x6 | x6 | x6 | x6 | x6 | x6 | x6 | x6 | x6 | %403
 x6 | x6 | x6 | x6 | x6 | x6 | x6 | x6 | x6 | x6 | x6 | x6 | x6 | x6 | x6 | x6 | x6 | x6 | x6 | %422
 x6 | x6 | x6 | x6 | x6 | x6 | x6 | x6 | x6 | x6 | x6 | x6 | x6 | x6 | x6 | x6 | x6 | x6 | x6 | %441
 G2 x2 x2 | x6 | x6 | x6 | x6 | x6 | x6 | x6 | x6 | x6 | x6 | x6 | x6 | x6 | x6 | x6 | x6 | x6 | %459
 x6 | x6 | x6 |[M:2/2] x8 | x8 | x8 | x8 | x8 | x8 | x8 | x8 | x8 | x8 | x8 | x8 | x8 | x8 | x8 | %477
 x8 | x8 | x8 | x8 | x8 | x8 | x8 | x8 | x8 | x8 | x8 | x8 | x8 | x8 | x8 | x8 | x8 | x8 | x8 | %496
 x8 | x8 | x8 | x8 | x8 | x8 | x8 | x8 | x8 | x8 | x8 | x8 | x8 | x8 | x8 | x8 | x8 | x8 | x8 | %515
 x8 | x8 | x8 | x8 | x8 | x8 | x8 | x8 | x8 | x8 | x8 | x8 | x8 | x8 | x8 | x8 | x8 | x8 | x8 | %534
 x8 | x8 | x8 | x8 | x8 | x8 | x8 | x8 | x8 | x8 | x8 | x8 | x8 | x8 | x8 | x8 | x8 | x8 | x8 | %553
 x8 | x8 |[M:6/8] x6 | x6 | x6 | x6 | x6 | x6 | x6 | x6 | x6 | x6 | x6 | x6 | x6 | x6 | x6 | x6 | %571
 x6 | x6 | x6 | x6 | x6 | x6 | x6 | x6 | x6 | x6 | x6 | x6 | x6 | x6 | x6 | x6 | x6 | x6 | x6 | %590
 x6 | x6 | x6 | x6 | x6 | x6 | x6 | x6 | x6 | x6 | x6 | x6 | x6 | x6 | x6 | x6 | x6 | x6 | x6 | %609
 x6 | x6 | x6 | x6 | x6 | x6 | x6 | x6 | x6 | x6 | x6 |] %620

